dist/assets/group-772.svg

<svg width="42" height="79" viewBox="0 0 42 79" fill="none" xmlns="http://www.w3.org/2000/svg">
<ellipse cx="21.1286" cy="39.4323" rx="20.1775" ry="38.8698" fill="url(#paint0_linear_243_186)"/>
<path d="M31.281 27.2053C31.6796 28.5351 31.6261 30.1185 31.1411 31.3373L20.4909 58.1098C20.0517 59.2138 19.3285 59.7767 18.589 59.5032C17.8648 59.235 17.2906 58.218 17.0914 56.8503L15.5155 46.0461L15.3514 44.9223L14.9282 44.0866L10.859 36.0555C10.3438 35.0392 10.1737 33.5728 10.4152 32.2305C10.6542 30.9036 11.2536 29.9408 11.9926 29.7542L29.3535 25.3728C30.1439 25.1729 30.8825 25.8755 31.281 27.2053Z" fill="white"/>
<path d="M15.5155 46.0461L17.0913 56.8504C17.2906 58.2181 17.8648 59.2349 18.589 59.5033C19.3285 59.7768 20.0517 59.2139 20.4909 58.1099L31.141 31.3373C31.6261 30.1186 31.6795 28.5351 31.281 27.2053L15.3514 44.9223L15.5155 46.0461Z" fill="white"/>
<path d="M21.8336 37.7125C21.9957 38.2533 21.8998 38.9452 21.6187 39.2579L15.5154 46.0459L15.3513 44.9221L14.9282 44.0864L21.0314 37.2984C21.3125 36.9858 21.6715 37.1717 21.8336 37.7125Z" fill="url(#paint1_linear_243_186)"/>
<path d="M15.5156 46.0461L21.6188 39.2581C21.8999 38.9455 21.9958 38.2536 21.8337 37.7127L15.3514 44.9224L15.5156 46.0461Z" fill="url(#paint2_linear_243_186)"/>
<defs>
<linearGradient id="paint0_linear_243_186" x1="29.5725" y1="2.74357" x2="-17.4427" y2="64.2395" gradientUnits="userSpaceOnUse">
<stop stop-color="#747DEF"/>
<stop offset="1" stop-color="#5E3BE1"/>
</linearGradient>
<linearGradient id="paint1_linear_243_186" x1="19.634" y1="38.9259" x2="21.2144" y2="40.5708" gradientUnits="userSpaceOnUse">
<stop stop-color="#747DEF"/>
<stop offset="1" stop-color="#5E3BE1"/>
</linearGradient>
<linearGradient id="paint2_linear_243_186" x1="19.9195" y1="39.8784" x2="20.7236" y2="40.6551" gradientUnits="userSpaceOnUse">
<stop stop-color="#747DEF"/>
<stop offset="1" stop-color="#5E3BE1"/>
</linearGradient>
</defs>
</svg>

<svg width="42" height="79" fill="none" xmlns="http://www.w3.org/2000/svg"><ellipse cx="21.129" cy="39.432" rx="20.177" ry="38.87" fill="url(#paint0_linear_243_186)"/><path d="M31.281 27.205c.399 1.33.345 2.914-.14 4.132L20.491 58.11c-.44 1.104-1.163 1.667-1.902 1.393-.724-.268-1.298-1.285-1.498-2.653l-1.576-10.804-.164-1.124-.423-.835-4.069-8.032c-.515-1.016-.685-2.482-.444-3.825.24-1.326.839-2.29 1.578-2.476l17.36-4.381c.79-.2 1.53.502 1.928 1.832z" fill="#fff"/><path d="M15.515 46.046l1.576 10.804c.2 1.368.774 2.385 1.498 2.653.74.274 1.463-.29 1.902-1.393l10.65-26.773c.485-1.218.539-2.802.14-4.132l-15.93 17.717.164 1.124z" fill="#fff"/><path d="M21.834 37.712c.162.541.066 1.233-.215 1.546l-6.104 6.788-.164-1.124-.423-.836 6.103-6.788c.282-.312.64-.126.803.414z" fill="url(#paint1_linear_243_186)"/><path d="M15.516 46.046l6.103-6.788c.28-.313.377-1.004.215-1.545l-6.483 7.21.165 1.123z" fill="url(#paint2_linear_243_186)"/><defs><linearGradient id="paint0_linear_243_186" x1="29.573" y1="2.744" x2="-17.443" y2="64.24" gradientUnits="userSpaceOnUse"><stop stop-color="#747DEF"/><stop offset="1" stop-color="#5E3BE1"/></linearGradient><linearGradient id="paint1_linear_243_186" x1="19.634" y1="38.926" x2="21.214" y2="40.571" gradientUnits="userSpaceOnUse"><stop stop-color="#747DEF"/><stop offset="1" stop-color="#5E3BE1"/></linearGradient><linearGradient id="paint2_linear_243_186" x1="19.919" y1="39.878" x2="20.724" y2="40.655" gradientUnits="userSpaceOnUse"><stop stop-color="#747DEF"/><stop offset="1" stop-color="#5E3BE1"/></linearGradient></defs></svg>
